assets/icons/icon-chevron__right/web/icon-chevron__right.svg

<?xml version="1.0" encoding="UTF-8" standalone="no"?>
<svg width="48px" height="48px" viewBox="0 0 48 48" version="1.1" xmlns="http://www.w3.org/2000/svg" xmlns:xlink="http://www.w3.org/1999/xlink">
    <!-- Generator: Sketch 45.2 (43514) - http://www.bohemiancoding.com/sketch -->
    <title>icon-chevron__right</title>
    <desc>Created with Sketch.</desc>
    <defs></defs>
    <g id="Symbols" stroke="none" stroke-width="1" fill="none" fill-rule="evenodd">
        <g id="icon-chevron__right" fill="#2D2D2D">
            <path d="M26.3804663,23.7434051 L19.5166339,16.4176739 C19.140844,16.0165954 19.1630952,15.3869746 19.5670107,15.0120996 C19.9737422,14.6346109 20.6032481,14.658729 20.9793413,15.0601312 L28.4129563,22.9939882 C28.4196916,22.999919 28.42637,23.0059561 28.4329893,23.0120996 C28.6450893,23.2089501 28.7519491,23.4760444 28.7511973,23.7434051 C28.7519491,24.0107658 28.6450893,24.27786 28.4329893,24.4747106 C28.42637,24.480854 28.4196916,24.4868911 28.4129563,24.4928219 L20.9793413,32.4266789 C20.6032481,32.8280811 19.9737422,32.8521992 19.5670107,32.4747106 C19.1630952,32.0998355 19.140844,31.4702147 19.5166339,31.0691362 L26.3804663,23.7434051 Z"></path>
        </g>
    </g>
</svg>

<svg width="48" height="48" viewBox="0 0 48 48" xmlns="http://www.w3.org/2000/svg"><title>icon-chevron__right</title><path d="M26.38 23.743l-6.863-7.325a.991.991 0 0 1 .05-1.406 1 1 0 0 1 1.412.048l7.434 7.934.02.018a.991.991 0 0 1 .318.731.991.991 0 0 1-.338.75l-7.434 7.934a1 1 0 0 1-1.412.048.991.991 0 0 1-.05-1.406l6.863-7.326z" fill="#2D2D2D" fill-rule="evenodd"/></svg>
